images/icons/generic-email.svg

<svg width="24" height="24" fill="none" xmlns="http://www.w3.org/2000/svg">
  <path d="M2.4 21.2c-.66 0-1.225-.235-1.695-.705A2.311 2.311 0 0 1 0 18.8V4.4c0-.66.235-1.225.705-1.695A2.311 2.311 0 0 1 2.4 2h19.2c.66 0 1.225.235 1.695.705S24 3.74 24 4.4v14.4c0 .66-.235 1.225-.705 1.695s-1.035.705-1.695.705H2.4Zm9.6-8.61a1.248 1.248 0 0 0 .63-.18l8.49-5.31a.992.992 0 0 0 .48-.87c0-.4-.17-.7-.51-.9-.34-.2-.69-.19-1.05.03L12 10.4 3.96 5.36c-.36-.22-.71-.225-1.05-.015-.34.21-.51.505-.51.885 0 .2.04.375.12.525.08.15.2.265.36.345l8.49 5.31a1.248 1.248 0 0 0 .63.18Z" fill="#fff" />
</svg>

<svg width="24" height="24" viewBox="0 0 24 24" fill="none" xmlns="http://www.w3.org/2000/svg">
<path d="M2.4 21.2C1.74 21.2 1.175 20.965 0.705 20.495C0.235 20.025 0 19.46 0 18.8V4.4C0 3.74 0.235 3.175 0.705 2.705C1.175 2.235 1.74 2 2.4 2H21.6C22.26 2 22.825 2.235 23.295 2.705C23.765 3.175 24 3.74 24 4.4V18.8C24 19.46 23.765 20.025 23.295 20.495C22.825 20.965 22.26 21.2 21.6 21.2H2.4ZM12 12.59C12.1 12.59 12.205 12.575 12.315 12.545C12.425 12.515 12.53 12.47 12.63 12.41L21.12 7.1C21.28 7 21.4 6.875 21.48 6.725C21.56 6.575 21.6 6.41 21.6 6.23C21.6 5.83 21.43 5.53 21.09 5.33C20.75 5.13 20.4 5.14 20.04 5.36L12 10.4L3.96 5.36C3.6 5.14 3.25 5.135 2.91 5.345C2.57 5.555 2.4 5.85 2.4 6.23C2.4 6.43 2.44 6.605 2.52 6.755C2.6 6.905 2.72 7.02 2.88 7.1L11.37 12.41C11.47 12.47 11.575 12.515 11.685 12.545C11.795 12.575 11.9 12.59 12 12.59Z" fill="white"/>
</svg>
